X:1
T:In Tenderness He Sought Me
T:Adoniram Judson Gordon
T:In Tenderness He Sought Me
T:Public Domain
T:Public Domain
T:Public Domain
C:Adoniram Judson Gordon
Z:Public Domain
%%score ( 1 2 ) 3
L:1/8
M:6/8
K:A
V:1 treble 
V:2 treble 
V:3 bass 
V:1
 E | E2 [EA] [EA]2 [EB] | [EA]3 [EG]2 [EA] | [EB]2 [E^A] [EB]2 [Ec] | [EA]3- [EA]2 E | %5
w: 1.~In|der- ness He sought|me, Wear- y|and sick with sin;|And * on|
w: 2.~He|the bleed- ing sin|wounds, And poured|in oil and wine;|He * whis-|
w: 3.~He|ed to the nail|prints, For me|His blood was shed,|A * mock-|
w: 4.~I’m|ting in His pre-|sence, The sun-|shine of His face,|While * with|
w: 5.~So|the hours are pass-|ing, All now|is per- fect rest,|I’m * wait-|
 E2 [Ac] [Ac]2 [Ad] | [Fc]3 [FB]2 [AB] | [GB]2 [EG] [FA]2 [^DF] | E3- E2 E | %9
w: shou- ders brought me|to His fold|a- gain. While an-|gels * in|
w: to as- sure me,|found thee, thou|art Mine”; I ne-|ver * heard|
w: crown so thorn- y|placed up- on|His head; I won-|dered * what|
w: dor- ing won- der|bless- ings I|re- trace. It seems|as * if|
w: for the morn- ing,|bright- est and|the best, When He|will * call|
 [Ed]2 [Ed] [Ec]2 [Ec] | [EB]2 [EB] [EA]2 [EA] | [^DF]2 [DF] [DB]2 [DA] | [EG]2 [^DF] (E2 =D) || %13
w: sence sang Un- til|the courts of Hea-|ven rang. * *||
w: er voice; It made|my ach- ing heart|re- joice! * *||
w: in me, To suf-|fer such deep a-|go- ny. * *||
w: nal days Are far|too short to sound|His praise. * *||
w: His side, To be|with Him, His spot-|less bride. * *||
"^Refrain" [CE]2 [EA] [EA]2 [EB] | [EA]3 [EG]3 | E2 [EB] [EB]2 [Ec] | [EB]3 [EA]3 | %17
w: ||||
w: ||||
w: ||||
w: ||||
w: ||||
 [Ac]2 [Bd] [ce]2 [Ac] | [Bd]2 [EB] [Ec]2 [EA] | [GB]6 | [Ac]2 [=Ge] [Fd]2 [FB] | %21
w: ||||
w: ||||
w: ||||
w: ||||
w: ||||
 [EA]2 [EA] [EG]2 [EB] | [EA]3- [EA]2 |] %23
w: ||
w: ||
w: ||
w: ||
w: ||
V:2
 E | x6 | x6 | x6 | x5 E | E2 x4 | x6 | x6 | E3- E2 E | x6 | x6 | x6 | x3 E2 x || x6 | x6 | E2 x4 | %16
w: ten-||||His|Back|||His * pre-||||||||
w: washed||||pered|“I’ve|||a * sweet-||||||||
w: point-||||ing|Was|||He * saw||||||||
w: sit-||||a-|His|||e- * ter-||||||||
w: while||||ing|The|||us * to||||||||
 x6 | x6 | x6 | x6 | x6 | x6 | x5 |] %23
w: |||||||
w: |||||||
w: |||||||
w: |||||||
w: |||||||
V:3
 [A,C] | [A,C]2 [A,C] [A,C]2 [A,D] | [E,C]3 [E,B,]2 [E,C] | [E,D]2 [E,C] [E,D]2 [E,E] | %4
w: ~|~ ~ ~ ~|~ ~ ~|~ ~ ~ ~|
 [A,C]3- [A,C]2 [A,C] | [A,C]2 [A,E] [A,E]2 [A,F] | [D,E]3 [D,D]2 [^D,F] | %7
w: ~ * ~|~ ~ ~ ~|~ ~ ~|
 [E,E]2 [E,B,] [B,,B,]2 [B,,A,] | [E,G,]3- [E,G,]2 [E,G,] | [E,G,]2 [E,G,] [E,A,]2 [E,A,] | %10
w: ~ ~ ~ ~|~ * ~|~ ~ ~ ~|
 [E,D]2 [E,D] [A,C]2 [A,C] | B,2 [B,,B,] [B,,F,]2 [B,,B,] | [B,,B,]2 [B,,A,] [E,G,]3 || %13
w: ~ ~ ~ ~|~ ~ ~ ~|~ ~ ~|
 [A,,A,]2 [A,C] [A,C]2 [A,D] | [E,C]3 [E,B,]3 | [G,D]2 [G,D] [E,D]2 [E,D] | [A,C]3 [A,,A,C]3 | %17
w: Oh, the love that|sought me!|Oh, the blood that|bought me!|
 [A,E]2 [A,E] [A,E]2 [A,E] | [G,E]2 [G,E] [G,E]2 [A,C] | [E,E]6 | [A,E]2 [A,C] [D,A,]2 [D,D] | %21
w: Oh, the grace that|brought me to the|fold,|Wond- rous grace that|
 [E,C]2 [E,C] [E,B,]2 [E,D] | [A,C]3- [A,C]2 |] %23
w: brought me to the|fold. *|

